X: 204
T:The Seal-Woman's Sea-Joy
S:David Thomson, The People of the Sea
N:from Marjorie Kennedy-Fraser; collected in Uist
M:3/4
L:1/4
Q:3/4=70
K:DDor
|: (A3    |D3)|   (A3    |G3)|({d}A3    |D3)|C C2|D3:|
%
({A}G F) G|A3 |({A}G F) G|A3 |({A}G F) G|A3 |C C2|C3||
%
|: (A3    |D3) |  (A3    |G3)|({d}A3    |D3)|C C2|D3:|

Kennedy-Fraser claimed that she sang that to a seal once, and the seal
sang back to her, a narrow-range melody in the sol-pentatonic mode:

